svg/deploy.svg

<svg id="Layer_1" data-name="Layer 1" xmlns="http://www.w3.org/2000/svg" width="24" height="24" viewBox="0 0 24 24">
  <path d="M24.01,20.02744v2H.01v-2h4v-1a2.00591,2.00591,0,0,1-2-2v-10a2.00587,2.00587,0,0,1,2-2H6.00639v2H4.01v10h16v-10H18.00636v-2H20.01a2.00583,2.00583,0,0,1,2,2l-.01,10a1.99731,1.99731,0,0,1-1.99,2v1Zm-9-6.0127-3-3-3,3h2v2.01h2v-2.01Zm.995-7.99081a4,4,0,1,1-4-4A4.00145,4.00145,0,0,1,16.005,6.02393Zm-4.4,2.95959V8.42389a.80233.80233,0,0,1-.8-.8v-.4L9.06006,5.479A2.9577,2.9577,0,0,0,11.605,8.98352Zm2.65839-1.00641a2.97657,2.97657,0,0,0-1.06824-4.7044.79733.79733,0,0,1-.7901.75122H11.605v.8a.40121.40121,0,0,1-.4.4h-.8v.8h2.4a.40117.40117,0,0,1,.4.4v1.2h.4A.78657.78657,0,0,1,14.26337,7.97711Z"/>
</svg>

<svg id="Layer_1" data-name="Layer 1" xmlns="http://www.w3.org/2000/svg" viewBox="0 0 24 24"><title>deploy</title><path d="M24,20v2H0V20H4V19a2,2,0,0,1-2-2V7A2,2,0,0,1,4,5H6V7H4V17H20V7H18V5h2a2,2,0,0,1,2,2V17a2,2,0,0,1-2,2v1ZM13,16V14h2l-3-3L9,14h2v2ZM8,6a4,4,0,1,1,4,4A4,4,0,0,1,8,6Zm2.4,0H12.8a.4.4,0,0,1,.41.4v1.2h.39a.77.77,0,0,1,.66.36A3,3,0,0,0,13.2,3.27a.8.8,0,0,1-.79.75H11.6v.8a.4.4,0,0,1-.39.4h-.8ZM9,6A3,3,0,0,0,11.6,9V8.42a.8.8,0,0,1-.8-.8v-.4L9.06,5.48A3.29,3.29,0,0,0,9,6Z"/></svg>
